symbols/web/format_paint/materialsymbolsrounded/format_paint_grad200_24px.svg

<svg xmlns="http://www.w3.org/2000/svg" height="24" width="24"><path d="M11 22.7q-1.1 0-1.875-.775-.775-.775-.775-1.875V16.8H5.8q-1.1 0-1.875-.775-.775-.775-.775-1.875v-6.9q0-2.025 1.438-3.488Q6.025 2.3 8.05 2.3h12.8v11.85q0 1.1-.775 1.875-.775.775-1.875.775h-2.55v3.25q0 1.1-.775 1.875Q14.1 22.7 13 22.7Zm-5.2-13h12.4V4.95h-.95v2.275q0 .55-.387.937-.388.388-.938.388-.55 0-.937-.388-.388-.387-.388-.937V4.95h-.95v.575q0 .55-.388.937-.387.388-.937.388t-.938-.388Q11 6.075 11 5.525V4.95H8.05q-.95 0-1.6.675Q5.8 6.3 5.8 7.25Zm0 4.45h12.4v-1.8H5.8v1.8Zm0-1.8v1.8Z"/></svg>

<svg xmlns="http://www.w3.org/2000/svg" height="24" width="24"><path d="M11 22.7Q9.9 22.7 9.125 21.925Q8.35 21.15 8.35 20.05V16.8H5.8Q4.7 16.8 3.925 16.025Q3.15 15.25 3.15 14.15V7.25Q3.15 5.225 4.588 3.762Q6.025 2.3 8.05 2.3H20.85V14.15Q20.85 15.25 20.075 16.025Q19.3 16.8 18.2 16.8H15.65V20.05Q15.65 21.15 14.875 21.925Q14.1 22.7 13 22.7ZM5.8 9.7H18.2V4.95H17.25V7.225Q17.25 7.775 16.863 8.162Q16.475 8.55 15.925 8.55Q15.375 8.55 14.988 8.162Q14.6 7.775 14.6 7.225V4.95H13.65V5.525Q13.65 6.075 13.262 6.462Q12.875 6.85 12.325 6.85Q11.775 6.85 11.387 6.462Q11 6.075 11 5.525V4.95H8.05Q7.1 4.95 6.45 5.625Q5.8 6.3 5.8 7.25ZM5.8 14.15H18.2Q18.2 14.15 18.2 14.15Q18.2 14.15 18.2 14.15V12.35H5.8V14.15Q5.8 14.15 5.8 14.15Q5.8 14.15 5.8 14.15ZM5.8 12.35V14.15Q5.8 14.15 5.8 14.15Q5.8 14.15 5.8 14.15Q5.8 14.15 5.8 14.15Q5.8 14.15 5.8 14.15Z"/></svg>
